static/images/logo-8.svg

<svg width="195" height="41" viewBox="0 0 195 41" fill="none" xmlns="http://www.w3.org/2000/svg">
<path d="M1.12793 15.8931L11.3996 5.63306L21.6712 15.8931" stroke="white" stroke-width="2.49535" stroke-miterlimit="10"/>
<path d="M1.12793 24.9863L11.3996 14.7262L21.6712 24.9863" stroke="white" stroke-width="2.49535" stroke-miterlimit="10"/>
<path d="M41.0462 14.7262L30.7746 24.9863L20.5029 14.7262" stroke="white" stroke-width="2.49535" stroke-miterlimit="10"/>
<path d="M41.0462 5.63306L30.7746 15.8931L20.5029 5.63306" stroke="white" stroke-width="2.49535" stroke-miterlimit="10"/>
<path d="M11.3994 41V0Z" fill="white"/>
<path d="M11.3994 41V0" stroke="white" stroke-width="2.49535" stroke-miterlimit="10"/>
<path d="M30.7744 41V0Z" fill="white"/>
<path d="M30.7744 41V0" stroke="white" stroke-width="2.49535" stroke-miterlimit="10"/>
<path d="M51.3179 30.74H54.9432V22.2503H64.0064V18.951H54.9432V13.5594H64.53V10.2601H51.3179V30.74Z" fill="white"/>
<path d="M85.2348 12.6341C84.2493 11.6703 83.0679 10.9294 81.7707 10.4614C80.3642 9.95233 78.8757 9.70681 77.3801 9.73712C75.8951 9.72095 74.42 9.98016 73.0297 10.5016C71.7501 10.9812 70.5842 11.7211 69.6058 12.6743C68.6271 13.6477 67.8593 14.8119 67.3501 16.0943C66.7965 17.5174 66.523 19.0339 66.5445 20.5605C66.52 22.0612 66.7938 23.5519 67.3501 24.9461C67.8555 26.2169 68.6221 27.3677 69.6004 28.3241C70.5787 29.2805 71.7469 30.0213 73.0297 30.4986C74.42 31.0201 75.8951 31.2793 77.3801 31.2631C78.8807 31.2668 80.3691 30.994 81.7707 30.4584C83.0624 29.9605 84.2406 29.2079 85.2348 28.2455C86.2099 27.2845 86.9776 26.1343 87.4906 24.8657C88.0458 23.4711 88.3196 21.9806 88.2962 20.48C88.3208 18.9531 88.0471 17.4361 87.4906 16.0139C86.9786 14.7447 86.2108 13.5943 85.2348 12.6341ZM83.9861 23.4172C83.6694 24.3107 83.1763 25.1317 82.536 25.8313C81.9182 26.5165 81.1635 27.0648 80.3206 27.4407C79.4045 27.831 78.4161 28.023 77.4203 28.004C76.4243 28.0268 75.4351 27.8346 74.5201 27.4407C73.6777 27.0638 72.9232 26.5156 72.3047 25.8313C71.6644 25.1317 71.1713 24.3107 70.8545 23.4172C70.505 22.4496 70.3278 21.4282 70.3309 20.3995C70.3296 19.4234 70.5071 18.4552 70.8545 17.5428C71.1808 16.6778 71.6734 15.885 72.3047 15.2091C72.9264 14.5385 73.6808 14.0041 74.5201 13.64C75.4365 13.2508 76.4247 13.0589 77.4203 13.0767C78.4156 13.0625 79.4031 13.2542 80.3206 13.64C81.1605 14.0031 81.9151 14.5376 82.536 15.2091C83.1672 15.885 83.6599 16.6778 83.9861 17.5428C84.3344 18.455 84.5119 19.4233 84.5098 20.3995C84.5137 21.4283 84.3365 22.4498 83.9861 23.4172Z" fill="white"/>
<path d="M104.65 19.8764C105.497 18.8167 105.94 17.4903 105.898 16.1345C105.934 15.1427 105.712 14.1586 105.254 13.2778C104.854 12.5397 104.272 11.9164 103.562 11.4672C102.805 11.0135 101.973 10.7 101.105 10.5418C100.163 10.3535 99.2053 10.2592 98.245 10.2601H91.1152V30.74H94.7808V22.0894H97.4393L102.192 30.7803H106.583L101.145 21.687C102.504 21.5588 103.76 20.9099 104.65 19.8764ZM99.1714 18.8705L97.6005 18.951H94.7808V13.3985H97.9227L99.3728 13.479C99.8319 13.531 100.28 13.6531 100.702 13.8411C101.092 14.016 101.426 14.2943 101.669 14.6458C101.933 15.0813 102.059 15.5861 102.031 16.0943C102.064 16.6465 101.923 17.1951 101.629 17.6635C101.365 18.037 101.002 18.3297 100.581 18.5084C100.133 18.7007 99.6572 18.8229 99.1714 18.8705Z" fill="white"/>
<path d="M112.746 21.8882H122.172V18.5889H112.746V13.5594H122.696V10.2601H109.121V30.74H123.219V27.4407H112.746V21.8882Z" fill="white"/>
<path d="M136.955 20.0374C136.227 19.5855 135.441 19.2337 134.619 18.9913L132.283 18.2268C131.635 17.9951 131.024 17.6698 130.47 17.2612C130.227 17.072 130.034 16.8266 129.908 16.5461C129.782 16.2657 129.726 15.9587 129.745 15.6518C129.73 15.2316 129.828 14.815 130.027 14.4447C130.216 14.1207 130.478 13.8452 130.792 13.64C131.126 13.4295 131.494 13.2797 131.88 13.1974C132.288 13.093 132.707 13.039 133.129 13.0365C133.833 13.0364 134.531 13.1731 135.183 13.4388C135.806 13.6932 136.339 14.1275 136.714 14.6861L139.372 11.8696C138.588 11.1396 137.653 10.5902 136.633 10.2602C135.618 9.93479 134.557 9.77183 133.491 9.77738C132.553 9.77217 131.618 9.89398 130.712 10.1395C129.845 10.3676 129.027 10.7492 128.295 11.2661C127.598 11.7803 127.021 12.4392 126.603 13.1974C126.155 14.0385 125.933 14.9811 125.959 15.9334C125.911 16.9492 126.163 17.9565 126.684 18.8304C127.151 19.5348 127.771 20.1259 128.496 20.5605C129.226 21.0091 130.012 21.3607 130.833 21.6066L133.169 22.4113C133.827 22.6577 134.439 23.0112 134.982 23.4575C135.227 23.6716 135.419 23.9388 135.545 24.2386C135.67 24.5385 135.726 24.8631 135.707 25.1876C135.716 25.6251 135.605 26.0567 135.384 26.4349C135.174 26.7908 134.885 27.0937 134.539 27.3201C134.18 27.5561 133.785 27.7328 133.37 27.8431C132.168 28.1678 130.886 28.024 129.785 27.4408C129.082 27.0758 128.485 26.5352 128.053 25.8716L125.274 28.4869C126.074 29.4523 127.117 30.1881 128.295 30.6194C129.47 31.0451 130.711 31.263 131.961 31.2632C132.928 31.267 133.892 31.1315 134.821 30.8608C135.682 30.6131 136.489 30.2034 137.197 29.6537C137.897 29.1044 138.462 28.4025 138.849 27.6017C139.272 26.696 139.479 25.7042 139.453 24.7048C139.504 23.676 139.252 22.6548 138.728 21.7676C138.269 21.0701 137.664 20.4799 136.955 20.0374Z" fill="white"/>
<path d="M141.023 13.5594H147.307V30.74H150.933V13.5594H157.216V10.2601H141.023V13.5594Z" fill="white"/>
<path d="M173.973 19.8764C174.821 18.8167 175.264 17.4903 175.222 16.1345C175.256 15.1429 175.034 14.1592 174.578 13.2778C174.178 12.5398 173.595 11.9164 172.886 11.4672C172.13 11.0127 171.297 10.6992 170.429 10.5418C169.487 10.3533 168.529 10.2589 167.569 10.2601H160.439V30.74H164.105V22.0894H166.763L171.516 30.7803H175.907L170.469 21.687C171.828 21.5588 173.084 20.9099 173.973 19.8764ZM168.495 18.8705L166.924 18.951H164.105V13.3985H167.246L168.697 13.479C169.155 13.5316 169.604 13.6537 170.026 13.8411C170.416 14.016 170.75 14.2943 170.993 14.6458C171.256 15.0813 171.383 15.5861 171.355 16.0943C171.388 16.6465 171.247 17.1951 170.952 17.6635C170.689 18.037 170.326 18.3297 169.905 18.5084C169.456 18.7001 168.981 18.8222 168.495 18.8705Z" fill="white"/>
<path d="M190.65 10.2601L185.534 18.4279L180.499 10.2601H175.947L183.641 21.9687V30.74H187.266V21.9687L195 10.2601H190.65Z" fill="white"/>
</svg>

<svg width="195" height="41" viewBox="0 0 195 41" fill="none" xmlns="http://www.w3.org/2000/svg"><path d="M1.128 15.893L11.4 5.633l10.271 10.26" stroke="#fff" stroke-width="2.495" stroke-miterlimit="10"/><path d="M1.128 24.986L11.4 14.726l10.271 10.26M41.046 14.726l-10.271 10.26-10.272-10.26" stroke="#fff" stroke-width="2.495" stroke-miterlimit="10"/><path d="M41.046 5.633l-10.271 10.26-10.272-10.26" stroke="#fff" stroke-width="2.495" stroke-miterlimit="10"/><path d="M11.4 41V0z" fill="#fff"/><path d="M11.4 41V0" stroke="#fff" stroke-width="2.495" stroke-miterlimit="10"/><path d="M30.774 41V0z" fill="#fff"/><path d="M30.774 41V0" stroke="#fff" stroke-width="2.495" stroke-miterlimit="10"/><path d="M51.318 30.74h3.625v-8.49h9.063v-3.299h-9.063v-5.392h9.587V10.26H51.318v20.48zM85.235 12.634a9.627 9.627 0 00-3.464-2.173 12.176 12.176 0 00-4.39-.724 12.016 12.016 0 00-4.351.765 9.871 9.871 0 00-3.424 2.172 10.06 10.06 0 00-2.256 3.42 11.858 11.858 0 00-.805 4.466c-.025 1.501.249 2.992.805 4.386a9.777 9.777 0 005.68 5.553c1.39.521 2.865.78 4.35.764 1.5.004 2.99-.269 4.39-.805a10.314 10.314 0 003.465-2.212 10.019 10.019 0 002.256-3.38c.555-1.395.829-2.885.805-4.386a11.737 11.737 0 00-.805-4.466 9.977 9.977 0 00-2.256-3.38zm-1.249 10.783a7.078 7.078 0 01-1.45 2.414 6.605 6.605 0 01-2.215 1.61 7.056 7.056 0 01-2.9.563 6.934 6.934 0 01-2.9-.563 6.644 6.644 0 01-2.216-1.61 7.08 7.08 0 01-1.45-2.414 8.805 8.805 0 01-.524-3.018 7.998 7.998 0 01.523-2.856 7.08 7.08 0 011.45-2.334 6.606 6.606 0 012.216-1.569 7.095 7.095 0 012.9-.563 7.217 7.217 0 012.9.563c.84.363 1.595.898 2.216 1.57a7.08 7.08 0 011.45 2.333 7.96 7.96 0 01.524 2.857 8.763 8.763 0 01-.524 3.017zM104.65 19.876a5.71 5.71 0 001.248-3.742 5.74 5.74 0 00-.644-2.856 4.91 4.91 0 00-1.692-1.81 7.338 7.338 0 00-2.457-.926c-.942-.188-1.9-.283-2.86-.282h-7.13v20.48h3.666v-8.65h2.658l4.753 8.69h4.391l-5.438-9.093a5.28 5.28 0 003.505-1.81zm-5.479-1.006l-1.57.081h-2.82v-5.553h3.142l1.45.081c.459.052.907.174 1.329.362.39.175.724.453.967.805.264.435.39.94.362 1.448.033.552-.108 1.101-.402 1.57a2.461 2.461 0 01-1.048.844 4.749 4.749 0 01-1.41.363zM112.746 21.888h9.426v-3.3h-9.426V13.56h9.95V10.26h-13.575v20.48h14.098v-3.3h-10.473v-5.552zM136.955 20.037a9.553 9.553 0 00-2.336-1.046l-2.336-.764a7.058 7.058 0 01-1.813-.966 1.886 1.886 0 01-.725-1.61c-.015-.42.083-.836.282-1.206.189-.324.451-.6.765-.805a3.35 3.35 0 011.088-.443 5.159 5.159 0 011.249-.16c.704 0 1.402.136 2.054.402a3.386 3.386 0 011.531 1.247l2.658-2.816a7.33 7.33 0 00-2.739-1.61 10.122 10.122 0 00-3.142-.483 10.405 10.405 0 00-2.779.363 7.495 7.495 0 00-2.417 1.126 5.999 5.999 0 00-1.692 1.931 5.5 5.5 0 00-.644 2.736 5.18 5.18 0 00.725 2.897 5.675 5.675 0 001.812 1.73c.73.45 1.516.8 2.337 1.047l2.336.804c.658.247 1.27.6 1.813 1.046a2.135 2.135 0 01.725 1.73c.009.438-.102.87-.323 1.248-.21.356-.499.659-.845.885a3.999 3.999 0 01-1.169.523 4.92 4.92 0 01-3.585-.402 4.59 4.59 0 01-1.732-1.57l-2.779 2.616a7.089 7.089 0 003.021 2.132 10.77 10.77 0 003.666.644c.967.004 1.931-.132 2.86-.402a7.057 7.057 0 002.376-1.207 5.837 5.837 0 001.652-2.052 6.45 6.45 0 00.604-2.897 5.263 5.263 0 00-.725-2.937 5.796 5.796 0 00-1.773-1.73zM141.023 13.56h6.284v17.18h3.626V13.56h6.283v-3.3h-16.193v3.3zM173.973 19.876a5.706 5.706 0 001.249-3.742 5.786 5.786 0 00-.644-2.856 4.92 4.92 0 00-1.692-1.81 7.296 7.296 0 00-2.457-.926c-.942-.189-1.9-.283-2.86-.282h-7.13v20.48h3.666v-8.65h2.658l4.753 8.69h4.391l-5.438-9.093a5.275 5.275 0 003.504-1.81zm-5.478-1.006l-1.571.081h-2.819v-5.553h3.141l1.451.081a4.56 4.56 0 011.329.362c.39.175.724.453.967.805.263.435.39.94.362 1.448.033.552-.108 1.101-.403 1.57a2.453 2.453 0 01-1.047.844 4.798 4.798 0 01-1.41.363zM190.65 10.26l-5.116 8.168-5.035-8.168h-4.552l7.694 11.709v8.771h3.625v-8.771L195 10.26h-4.35z" fill="#fff"/></svg>
